Numix-GalliumOS/32/devices/media-tape.svg

<?xml version="1.0" encoding="UTF-8" standalone="no"?>
<svg
   xmlns:dc="http://purl.org/dc/elements/1.1/"
   xmlns:cc="http://creativecommons.org/ns#"
   xmlns:rdf="http://www.w3.org/1999/02/22-rdf-syntax-ns#"
   xmlns:svg="http://www.w3.org/2000/svg"
   xmlns="http://www.w3.org/2000/svg"
   xmlns:sodipodi="http://sodipodi.sourceforge.net/DTD/sodipodi-0.dtd"
   xmlns:inkscape="http://www.inkscape.org/namespaces/inkscape"
   viewBox="0 0 32 32"
   id="svg2"
   version="1.1"
   inkscape:version="0.91 r"
   sodipodi:docname="media-tape.svg"
   width="32"
   height="32">
  <metadata
     id="metadata12">
    <rdf:RDF>
      <cc:Work
         rdf:about="">
        <dc:format>image/svg+xml</dc:format>
        <dc:type
           rdf:resource="http://purl.org/dc/dcmitype/StillImage" />
        <dc:title />
      </cc:Work>
    </rdf:RDF>
  </metadata>
  <defs
     id="defs10" />
  <sodipodi:namedview
     pagecolor="#ffffff"
     bordercolor="#666666"
     borderopacity="1"
     objecttolerance="10"
     gridtolerance="10"
     guidetolerance="10"
     inkscape:pageopacity="0"
     inkscape:pageshadow="2"
     inkscape:window-width="1920"
     inkscape:window-height="1056"
     id="namedview8"
     showgrid="true"
     inkscape:zoom="19.666666"
     inkscape:cx="17.00547"
     inkscape:cy="16.569779"
     inkscape:window-x="0"
     inkscape:window-y="24"
     inkscape:window-maximized="1"
     inkscape:current-layer="svg2">
    <inkscape:grid
       type="xygrid"
       id="grid4151" />
  </sodipodi:namedview>
  <circle
     style="opacity:1;fill:#262626;fill-opacity:1;fill-rule:nonzero;stroke:none;stroke-width:2;stroke-linecap:round;stroke-linejoin:miter;stroke-miterlimit:4;stroke-dasharray:none;stroke-dashoffset:0;stroke-opacity:1"
     id="path4176"
     cx="11.5"
     cy="16.375"
     r="5.25" />
  <circle
     r="4.5"
     cy="16.375"
     cx="20.5"
     id="circle4187"
     style="opacity:1;fill:#262626;fill-opacity:1;fill-rule:nonzero;stroke:none;stroke-width:2;stroke-linecap:round;stroke-linejoin:miter;stroke-miterlimit:4;stroke-dasharray:none;stroke-dashoffset:0;stroke-opacity:1" />
  <circle
     style="opacity:1;fill:#ffffff;fill-opacity:1;fill-rule:nonzero;stroke:none;stroke-width:2;stroke-linecap:round;stroke-linejoin:miter;stroke-miterlimit:4;stroke-dasharray:none;stroke-dashoffset:0;stroke-opacity:1"
     id="path4189"
     cx="11.5"
     cy="16.375"
     r="2.25" />
  <circle
     r="2.25"
     cy="16.375"
     cx="20.5"
     id="circle4191"
     style="opacity:1;fill:#ffffff;fill-opacity:1;fill-rule:nonzero;stroke:none;stroke-width:2;stroke-linecap:round;stroke-linejoin:miter;stroke-miterlimit:4;stroke-dasharray:none;stroke-dashoffset:0;stroke-opacity:1" />
  <path
     style="opacity:1;fill:#838488;fill-opacity:1;fill-rule:nonzero;stroke:none;stroke-width:2;stroke-linecap:round;stroke-linejoin:miter;stroke-miterlimit:4;stroke-dasharray:none;stroke-dashoffset:0;stroke-opacity:1"
     d="M 1.8828125,7 C 1.393989,7 1,7.4081815 1,7.9160156 1,13.277344 1,18.638672 1,24 c 0,0.554 0.446,1 1,1 l 28,0 c 0.554,0 1,-0.446 1,-1 C 31,18.638672 31,13.277344 31,7.9160156 31,7.4081815 30.60601,7 30.117188,7 Z m 2.6875,5 L 11,12 11,21 4.5703125,21 4.2851562,20.5 c -1.26363,-2.475208 -1.2636299,-5.52479 0,-8 0.08974,-0.170618 0.1844503,-0.337401 0.2851563,-0.5 z M 21,12 l 6.429688,0 0.285156,0.5 c 1.263629,2.47521 1.263629,5.524791 0,8 -0.08974,0.170619 -0.184451,0.3374 -0.285156,0.5 L 21,21 Z"
     id="rect4155"
     inkscape:connector-curvature="0"
     sodipodi:nodetypes="sccssccsscccccccccccccc" />
  <path
     style="fill:#383838;fill-opacity:1;fill-rule:evenodd;stroke:none;stroke-width:1px;stroke-linecap:butt;stroke-linejoin:miter;stroke-opacity:1"
     d="m 1,11 1.5,0 0,-2 27,0 0,2 1.5,0 0,-4 -30,0 z"
     id="path4153"
     inkscape:connector-curvature="0"
     sodipodi:nodetypes="ccccccccc" />
  <rect
     style="opacity:1;fill:#fffcd3;fill-opacity:1;fill-rule:nonzero;stroke:none;stroke-width:2;stroke-linecap:round;stroke-linejoin:miter;stroke-miterlimit:4;stroke-dasharray:none;stroke-dashoffset:0;stroke-opacity:1"
     id="rect4195"
     width="8"
     height="6"
     x="12"
     y="14"
     rx="0.5"
     ry="0.5" />
  <rect
     style="opacity:1;fill:#f57979;fill-opacity:1;fill-rule:nonzero;stroke:none;stroke-width:2;stroke-linecap:round;stroke-linejoin:miter;stroke-miterlimit:4;stroke-dasharray:none;stroke-dashoffset:0;stroke-opacity:1"
     id="rect4193"
     width="8"
     height="2"
     x="12"
     y="13"
     rx="0.59999996"
     ry="0.5" />
  <path
     style="opacity:0.51399997;fill:#bcbcbc;fill-opacity:1;fill-rule:nonzero;stroke:none;stroke-width:2;stroke-linecap:round;stroke-linejoin:miter;stroke-miterlimit:4;stroke-dasharray:none;stroke-dashoffset:0;stroke-opacity:1"
     d="M 25 7 L 25 12 L 27 12 L 27 7 L 25 7 z M 25 21 L 25 25 L 27 25 L 27 21 L 25 21 z "
     id="rect4171" />
</svg>

<svg xmlns="http://www.w3.org/2000/svg" viewBox="0 0 32 32">
 <circle cx="11.5" cy="16.375" r="5.25" style="fill:#262626;opacity:1;fill-opacity:1;stroke:none;fill-rule:nonzero"/>
 <circle r="4.5" cy="16.375" cx="20.5" style="fill:#262626;opacity:1;fill-opacity:1;stroke:none;fill-rule:nonzero"/>
 <circle cx="11.5" cy="16.375" r="2.25" style="fill:#fff;opacity:1;fill-opacity:1;stroke:none;fill-rule:nonzero"/>
 <circle r="2.25" cy="16.375" cx="20.5" style="fill:#fff;opacity:1;fill-opacity:1;stroke:none;fill-rule:nonzero"/>
 <path d="m 1.883 7 c -0.489 0 -0.883 0.408 -0.883 0.916 0 5.361 0 10.723 0 16.08 c 0 0.554 0.446 1 1 1 l 28 0 c 0.554 0 1 -0.446 1 -1 c 0 -5.361 0 -10.723 0 -16.08 0 -0.508 -0.394 -0.916 -0.883 -0.916 m -25.547 5 l 6.43 0 0 9 -6.43 0 -0.285 -0.5 c -1.264 -2.475 -1.264 -5.525 0 -8 0.09 -0.171 0.184 -0.337 0.285 -0.5 z m 16.43 0 l 6.43 0 0.285 0.5 c 1.264 2.475 1.264 5.525 0 8 -0.09 0.171 -0.184 0.337 -0.285 0.5 l -6.43 0" style="fill:#838488;opacity:1;fill-opacity:1;stroke:none;fill-rule:nonzero"/>
 <path d="m 1 11 1.5 0 0 -2 27 0 0 2 1.5 0 0 -4 -30 0 z" style="fill:#383838;fill-opacity:1;stroke:none;fill-rule:evenodd"/>
 <rect width="8" height="6" x="12" y="14" rx="0.5" style="fill:#fffcd3;opacity:1;fill-opacity:1;stroke:none;fill-rule:nonzero"/>
 <rect width="8" height="2" x="12" y="13" rx="0.6" ry="0.5" style="fill:#f57979;opacity:1;fill-opacity:1;stroke:none;fill-rule:nonzero"/>
 <path d="m 25 7 l 0 5 l 2 0 l 0 -5 l -2 0 z m 0 14 l 0 4 l 2 0 l 0 -4 l -2 0 z" style="fill:#bcbcbc;opacity:0.514;fill-opacity:1;stroke:none;fill-rule:nonzero"/>
</svg>
